icons/Device/mac-line.svg

<svg viewBox="0 0 24 24" xmlns="http://www.w3.org/2000/svg"><path d="M14 18V20L16 21V22H8L7.99639 21.0036L10 20V18H2.9918C2.44405 18 2 17.5511 2 16.9925V4.00748C2 3.45107 2.45531 3 2.9918 3H21.0082C21.556 3 22 3.44892 22 4.00748V16.9925C22 17.5489 21.5447 18 21.0082 18H14ZM4 5V14H20V5H4Z"/></svg>

<svg xmlns="http://www.w3.org/2000/svg" viewBox="0 0 24 24">
    <g>
        <path fill="none" d="M0 0h24v24H0z"/>
        <path d="M14 18v2l2 1v1H8l-.004-.996L10 20v-2H2.992A.998.998 0 0 1 2 16.993V4.007C2 3.451 2.455 3 2.992 3h18.016c.548 0 .992.449.992 1.007v12.986c0 .556-.455 1.007-.992 1.007H14zM4 5v9h16V5H4z"/>
    </g>
</svg>
